lib/brands/icons/apple-icloud.svg

<svg xmlns="http://www.w3.org/2000/svg" fill="none" aria-hidden="true" viewBox="0 0 48 48"><g id="apple-icloud-Icon"><path id="Vector" fill="url(#paint0_linear_94_17149)" d="M26.9366 11.1492C25.0106 11.1531 23.1204 11.6695 21.46 12.6455C19.7996 13.6215 18.4289 15.0218 17.4886 16.7027C16.6793 16.3086 15.7911 16.1031 14.8909 16.1019C13.4801 16.1056 12.1163 16.6103 11.043 17.5261C9.96974 18.4419 9.25664 19.7092 9.03091 21.1019C7.54057 21.7259 6.26789 22.7765 5.37279 24.1216C4.47769 25.4667 4.00009 27.0464 4 28.6621C4.0021 30.8353 4.86715 32.9187 6.40496 34.4543C7.94276 35.9899 10.0274 36.8519 12.2006 36.8509C12.5446 36.8478 12.8879 36.823 13.2287 36.7768H36.0149C36.1345 36.7854 36.2544 36.7912 36.3743 36.7942C36.4886 36.7909 36.6028 36.7851 36.7168 36.7768H37.2625V36.7362C39.1178 36.5168 40.8284 35.6211 42.0703 34.2189C43.3121 32.8167 43.9987 31.0054 44 29.1284V29.1137C43.9957 27.3311 43.3732 25.6058 42.2396 24.2345C41.1061 22.8632 39.5323 21.9317 37.7891 21.6003C37.6855 18.7921 36.4966 16.1335 34.4724 14.1842C32.4483 12.2349 29.7468 11.1469 26.9366 11.1492V11.1492Z"/></g><defs><linearGradient id="paint0_linear_94_17149" x1="44.1214" x2="3.98523" y1="29.1492" y2="28.5956" gradientUnits="userSpaceOnUse"><stop stop-color="#3E82F4"/><stop offset="1" stop-color="#93DCF7"/></linearGradient></defs></svg>

<svg xmlns="http://www.w3.org/2000/svg" fill="none" aria-hidden="true" viewBox="0 0 48 48"><path fill="url(#a)" d="M26.937 11.15a10.85 10.85 0 0 0-9.448 5.553 5.952 5.952 0 0 0-2.598-.601 5.952 5.952 0 0 0-5.86 5A8.197 8.197 0 0 0 4 28.662a8.197 8.197 0 0 0 8.2 8.189 8.203 8.203 0 0 0 1.029-.074h22.786c.12.008.24.014.36.017.114-.003.228-.009.342-.017h.546v-.04a7.618 7.618 0 0 0 4.807-2.518 7.687 7.687 0 0 0 1.93-5.09v-.015a7.688 7.688 0 0 0-1.76-4.88 7.622 7.622 0 0 0-4.45-2.634 10.851 10.851 0 0 0-10.853-10.45Z"/><defs><linearGradient id="a" x1="44.121" x2="3.985" y1="29.149" y2="28.596" gradientUnits="userSpaceOnUse"><stop stop-color="#3E82F4"/><stop offset="1" stop-color="#93DCF7"/></linearGradient></defs></svg>
